X: 3
T: Dinkey's
R: reel
M: 4/4
L: 1/8
K: Amix
|:eg | aAAA aAbA | aAAA agef | gBBB gBaB | gBBB gfeg |aAAA gAAA | fAAA e2ef | gfgd efed | cdBc A2:|


Tune 24	Setting 23694

